T: Yann Falquet's
M: 6/8
L: 1/8
K: Gmaj
GBd | g2g fge- | edc BGB | A2G FGA- | AGA Bcd |
g2g fge- | edc BGB | A2G FAG- | G2G GBd |
g2g fge- | edc BGB | A2G FAF | EDE FAd |
g2g fge- | edc BGB | A2G FAG- | G2G GDE|
K:Gmix
|: F2F AFc- | cAF cFc | B2G e2d- | dcB AGE |
F2F AFc- | cAF cFc | B2G FAG- | G2G GDE:|
